Newaita-dark/actions/16/edit-image-face-add.svg

<svg height="16" viewBox="0 0 16 16" width="16" xmlns="http://www.w3.org/2000/svg"><g fill="#e0e0e0"><path d="m7.9375 1.449219c-1.832031 0-3.308594 1.472656-3.308594 3.304687 0 1.835938 1.476563 3.308594 3.308594 3.308594s3.308594-1.472656 3.308594-3.308594c0-1.832031-1.476563-3.304687-3.308594-3.304687zm0 1.320312c1.101562 0 1.984375.886719 1.984375 1.984375 0 1.101563-.882813 1.984375-1.984375 1.984375-1.097656 0-1.984375-.882812-1.984375-1.984375 0-1.097656.886719-1.984375 1.984375-1.984375zm0 0"/><path d="m5.617188 8.398438c-.0625 0-.128907.007812-.195313.03125-.441406.140624-1.238281.308593-1.972656.703124-.730469.390626-1.460938 1.148438-1.460938 2.238282v.992187h-.003906v.992188c0 .734375.589844 1.324219 1.324219 1.324219h5.953125v-1.324219h-5.292969c-.367188 0-.660156-.296875-.660156-.660157v-.332031h-.003906v-.992187c0-.5625.261718-.808594.769531-1.078125.445312-.242188 1.023437-.394531 1.53125-.546875 1.601562.589844 3.066406.589844 4.664062 0 .027344.007812.058594.015625.085938.023437l1.574219-.875c-.574219-.234375-1.136719-.363281-1.484376-.46875-.0625-.019531-.128906-.027343-.191406-.027343-.085937 0-.167968.015624-.246094.046874-1.539062.617188-2.597656.617188-4.140624 0-.078126-.03125-.164063-.046874-.25-.046874zm0 0"/><path d="m10.253906 11.703125h3.96875c.183594 0 .332032.148437.332032.328125v.664062c0 .179688-.148438.328126-.332032.328126h-3.96875c-.183594 0-.332031-.148438-.332031-.328126v-.664062c0-.179688.148437-.328125.332031-.328125zm0 0"/><path d="m12.898438 10.378906v3.96875c0 .183594-.148438.332032-.328126.332032h-.664062c-.179688 0-.328125-.148438-.328125-.332032v-3.96875c0-.183594.148437-.332031.328125-.332031h.664062c.179688 0 .328126.148437.328126.332031zm0 0"/></g></svg>

<svg xmlns="http://www.w3.org/2000/svg" xmlns:xlink="http://www.w3.org/1999/xlink" width="16px" height="16px" viewBox="0 0 16 16" version="1.1">
<g id="surface1">
     <defs>
  <style id="current-color-scheme" type="text/css">
   .ColorScheme-Text { color:#eeeeee; } .ColorScheme-Highlight { color:#424242; }
  </style>
 </defs>
<path style="fill:currentColor" class="ColorScheme-Text" d="M 7.9375 1.449219 C 6.105469 1.449219 4.628906 2.921875 4.628906 4.753906 C 4.628906 6.589844 6.105469 8.0625 7.9375 8.0625 C 9.769531 8.0625 11.246094 6.589844 11.246094 4.753906 C 11.246094 2.921875 9.769531 1.449219 7.9375 1.449219 Z M 7.9375 2.769531 C 9.039062 2.769531 9.921875 3.65625 9.921875 4.753906 C 9.921875 5.855469 9.039062 6.738281 7.9375 6.738281 C 6.839844 6.738281 5.953125 5.855469 5.953125 4.753906 C 5.953125 3.65625 6.839844 2.769531 7.9375 2.769531 Z M 7.9375 2.769531 "/>
     <defs>
  <style id="current-color-scheme" type="text/css">
   .ColorScheme-Text { color:#eeeeee; } .ColorScheme-Highlight { color:#424242; }
  </style>
 </defs>
<path style="fill:currentColor" class="ColorScheme-Text" d="M 5.617188 8.398438 C 5.554688 8.398438 5.488281 8.40625 5.421875 8.429688 C 4.980469 8.570312 4.183594 8.738281 3.449219 9.132812 C 2.71875 9.523438 1.988281 10.28125 1.988281 11.371094 L 1.988281 12.363281 L 1.984375 12.363281 L 1.984375 13.355469 C 1.984375 14.089844 2.574219 14.679688 3.308594 14.679688 L 9.261719 14.679688 L 9.261719 13.355469 L 3.96875 13.355469 C 3.601562 13.355469 3.308594 13.058594 3.308594 12.695312 L 3.308594 12.363281 L 3.304688 12.363281 L 3.304688 11.371094 C 3.304688 10.808594 3.566406 10.5625 4.074219 10.292969 C 4.519531 10.050781 5.097656 9.898438 5.605469 9.746094 C 7.207031 10.335938 8.671875 10.335938 10.269531 9.746094 C 10.296875 9.753906 10.328125 9.761719 10.355469 9.769531 L 11.929688 8.894531 C 11.355469 8.660156 10.792969 8.53125 10.445312 8.425781 C 10.382812 8.40625 10.316406 8.398438 10.253906 8.398438 C 10.167969 8.398438 10.085938 8.414062 10.007812 8.445312 C 8.46875 9.0625 7.410156 9.0625 5.867188 8.445312 C 5.789062 8.414062 5.703125 8.398438 5.617188 8.398438 Z M 5.617188 8.398438 "/>
     <defs>
  <style id="current-color-scheme" type="text/css">
   .ColorScheme-Text { color:#eeeeee; } .ColorScheme-Highlight { color:#424242; }
  </style>
 </defs>
<path style="fill:currentColor" class="ColorScheme-Text" d="M 10.253906 11.703125 L 14.222656 11.703125 C 14.40625 11.703125 14.554688 11.851562 14.554688 12.03125 L 14.554688 12.695312 C 14.554688 12.875 14.40625 13.023438 14.222656 13.023438 L 10.253906 13.023438 C 10.070312 13.023438 9.921875 12.875 9.921875 12.695312 L 9.921875 12.03125 C 9.921875 11.851562 10.070312 11.703125 10.253906 11.703125 Z M 10.253906 11.703125 "/>
     <defs>
  <style id="current-color-scheme" type="text/css">
   .ColorScheme-Text { color:#eeeeee; } .ColorScheme-Highlight { color:#424242; }
  </style>
 </defs>
<path style="fill:currentColor" class="ColorScheme-Text" d="M 12.898438 10.378906 L 12.898438 14.347656 C 12.898438 14.53125 12.75 14.679688 12.570312 14.679688 L 11.90625 14.679688 C 11.726562 14.679688 11.578125 14.53125 11.578125 14.347656 L 11.578125 10.378906 C 11.578125 10.195312 11.726562 10.046875 11.90625 10.046875 L 12.570312 10.046875 C 12.75 10.046875 12.898438 10.195312 12.898438 10.378906 Z M 12.898438 10.378906 "/>
</g>
</svg>
